X: 113
T: Polska fr\aan Loftahammar
R: sl-polska
O: Sm\aaland, Sweden
B: SvL Sml 19, efter Karl Andersson, Loftahammar
S: Bruce Sagan's "scanfolk" session archive
F: https://app.box.com/s/u6iiren0igvsukrhdducy7orq72jayq8/file/827819781337 2021-7-27
Z: id:hn-sp-113 (2009?)
Z: 2021 John Chambers <jc:trillian.mit.edu> Slight modifications, mostly to staff layout.
M: 3/4
L: 1/16
K: G
|: BcBA G2A2 B2c2 | d2de d4 B4 | G2g2 g2e2 f2g2 | agfe d8 || c2Ac cBAG F2D2 | B2B2 c2c2 d4 |
| e2dc c2B2 B2A2 | A2G2 G8 :: D2GF G2B2 G2B2 | B2AB cBAG F2D2 | D2GF G2B2 g2B2 |
| ABcB A4 G4 || g2B2 ABcA B2G2 | g2B2 ABcA B2G2 | G2AB c2Ac B2AG | FGAF G4 G,4 :|
|: d4 dcBc d2g2 | d4 dcBc d2g2 | g2fe d2c2 B2G2 | c4 BcdB A4 || G,2B2 G,2B2 G,2B2 |
| B2AB cBAG F2D2 | G,2B2 G,2B2 G,2B2 | B2AB cBAG F2D2 | d2d2 e2f2 g2B2 | cBcA A4 G4 :|
